X:1
T:Mossy Banks, The 
R:reel
M:4/4
L:1/8
Z:Peter Laban
K:G
gedB G3A|BAGB AEGE|DEGA Bd~d2|edgd eggf|
gedB G3A|BAGB AE ~E2|DEGA (3Bcd ge|dBAG EGG2:|
G3B ABGE|DGBG AGEG|~B3d edge|dBGA BA~A2|
G3B ABGE|DGBG AGEG|BGBd ~g3e|dBAc BG~G2:|
g2dg egde|gabg agef|g2dg egdB|ABGA BG (3Bcd|
g2dg egde|gabg agef|gfga gfed|egfa gede:|
</abc>
